!!!OTL: Krolewnie wieczney nieba
**kern
*staff1
=1-
*clefC4
*k[]
2C/
4C/
4C/
2F/
2D/
=2
4G/
2c\
4A\
2d\
2c\
1G
=3
!!linebreak:original
2A\
4c\
4c\
2G/
2D/
=4
2G/
2c\
2F/
2G/
=5
1D
0G;
!!linebreak:original
=6
2c\
4B\
4A\
2c\
4G/
4G/
=7
2D/
2G/
2c\
2A\
1G;
=8
2F/
2G/
2D/
2D/
=9
0G
==
*-
!!title: @{OTL}, @{GTL}, ed. @{ENC}
!!!pag:
!!!GTL: Hymnbook D
!!!EFL: 
!!!YEM: Creative Commons CC/BY/NC/SA 4.0
!!!ENC: Marcin Konik
!!!END: 2015-0m-dd
!!!EED: Marcin Konik
!!!EEV: 
!!!ONB: Encoded in vim by Marcin Konik
!!!CharacterEncoding: utf-8
!!!RDF**kern: l=long note in original notation
!!!RDF**kern: i=editorial accidental
!!muse2ps: z14jc180F
!!!COM: Anonim
!!!CDT: [?]
!!!TXO: Polish
!!!ODT: 
!!!GTL: Hymnbook D
!!!ARL: Opactwo św. Wojciecha, Staniątki 
!!!voices:	1
